public/images/floater-laptop-b.svg

<svg height="773" viewBox="0 0 1468 773" width="1468" xmlns="http://www.w3.org/2000/svg" xmlns:xlink="http://www.w3.org/1999/xlink"><defs><filter id="a" height="385.7%" width="124.2%" x="-12.1%" y="-142.9%"><feGaussianBlur in="SourceGraphic" stdDeviation="50"/></filter><path id="b" d="m100.770809 44.2222251c0-24.4232605 19.797052-44.2222251 44.223225-44.2222251h803.327828c24.423812 0 44.223225 19.80576 44.223225 44.2222251v515.8673449c0 24.42326-19.797052 44.222225-44.223225 44.222225h-803.327828c-24.423812 0-44.223225-19.80576-44.223225-44.222225z"/><filter id="c" height="107.1%" width="104.8%" x="-2.4%" y="-2.9%"><feOffset dx="0" dy="4" in="SourceAlpha" result="shadowOffsetOuter1"/><feGaussianBlur in="shadowOffsetOuter1" result="shadowBlurOuter1" stdDeviation="6.5"/><feColorMatrix in="shadowBlurOuter1" type="matrix" values="0 0 0 0 0   0 0 0 0 0   0 0 0 0 0  0 0 0 0.04 0"/></filter><filter id="d" height="105.5%" width="103.7%" x="-1.9%" y="-2.1%"><feGaussianBlur in="SourceAlpha" result="shadowBlurInner1" stdDeviation="3.5"/><feOffset dx="0" dy="0" in="shadowBlurInner1" result="shadowOffsetInner1"/><feComposite in="shadowOffsetInner1" in2="SourceAlpha" k2="-1" k3="1" operator="arithmetic" result="shadowInnerInner1"/><feColorMatrix in="shadowInnerInner1" result="shadowMatrixInner1" type="matrix" values="0 0 0 0 0   0 0 0 0 0   0 0 0 0 0  0 0 0 0.12 0"/><feGaussianBlur in="SourceAlpha" result="shadowBlurInner2" stdDeviation="1"/><feOffset dx="0" dy="0" in="shadowBlurInner2" result="shadowOffsetInner2"/><feComposite in="shadowOffsetInner2" in2="SourceAlpha" k2="-1" k3="1" operator="arithmetic" result="shadowInnerInner2"/><feColorMatrix in="shadowInnerInner2" result="shadowMatrixInner2" type="matrix" values="0 0 0 0 0   0 0 0 0 0   0 0 0 0 0  0 0 0 0.06 0"/><feMerge><feMergeNode in="shadowMatrixInner1"/><feMergeNode in="shadowMatrixInner2"/></feMerge></filter><path id="e" d="m.62910528 587.569231c-.34744525-.000201-.62910528.278329-.62910528.63573v9.783284s30.1926325 15.933911 137.296086 17.986694c107.391639-.247285 780.479828 0 780.479828 0s131.364376 1.463223 175.224086-17.986694v-9.160393c0-.346361-.28048-.627305-.62911-.627507z"/><filter id="f" height="251.2%" width="103.9%" x="-2%" y="-61.6%"><feOffset dx="0" dy="4" in="SourceAlpha" result="shadowOffsetOuter1"/><feGaussianBlur in="shadowOffsetOuter1" result="shadowBlurOuter1" stdDeviation="6.5"/><feColorMatrix in="shadowBlurOuter1" type="matrix" values="0 0 0 0 0   0 0 0 0 0   0 0 0 0 0  0 0 0 0.04 0"/></filter><filter id="g" height="216.1%" width="103%" x="-1.5%" y="-44%"><feGaussianBlur in="SourceAlpha" result="shadowBlurInner1" stdDeviation="3.5"/><feOffset dx="0" dy="0" in="shadowBlurInner1" result="shadowOffsetInner1"/><feComposite in="shadowOffsetInner1" in2="SourceAlpha" k2="-1" k3="1" operator="arithmetic" result="shadowInnerInner1"/><feColorMatrix in="shadowInnerInner1" result="shadowMatrixInner1" type="matrix" values="0 0 0 0 0   0 0 0 0 0   0 0 0 0 0  0 0 0 0.12 0"/><feGaussianBlur in="SourceAlpha" result="shadowBlurInner2" stdDeviation="1"/><feOffset dx="0" dy="0" in="shadowBlurInner2" result="shadowOffsetInner2"/><feComposite in="shadowOffsetInner2" in2="SourceAlpha" k2="-1" k3="1" operator="arithmetic" result="shadowInnerInner2"/><feColorMatrix in="shadowInnerInner2" result="shadowMatrixInner2" type="matrix" values="0 0 0 0 0   0 0 0 0 0   0 0 0 0 0  0 0 0 0.06 0"/><feMerge><feMergeNode in="shadowMatrixInner1"/><feMergeNode in="shadowMatrixInner2"/></feMerge></filter></defs><g fill="none" fill-rule="evenodd" transform="translate(117 9)"><path d="m551.577319 636.999998c-398.003032-.003874-720.577319-5.478535-720.577319-12.231314 0-3.961273 155.9475748-6.088588 294.355756-24.281529.322534-.042395.677903-.08185 1.065558-.118431-58.8729064-11.686397-93.421314-23.611313-93.421314-31.469919 0-20.378647 232.140357-36.898805 518.5-36.898805s518.5 16.520158 518.5 36.898805c0 11.003428-67.62675 29.978827-174.928797 45.109291 225.082427 2.069579 377.928797 6.112276 377.928797 10.760588 0 6.755169-322.802695 12.231316-721 12.231316-.106562-.000007-.213132 0-.31971 0-.034327 0-.068653-.000001-.102979-.000002z" fill="#9cacc2" filter="url(#a)"/><use fill="#000" filter="url(#c)" xlink:href="#b"/><use fill="#fff" fill-rule="evenodd" xlink:href="#b"/><use fill="#000" filter="url(#d)" xlink:href="#b"/><circle cx="546.815945" cy="30.326185" fill="#ededed" r="3.7908"/><use fill="#000" filter="url(#f)" xlink:href="#e"/><use fill="#fff" fill-rule="evenodd" xlink:href="#e"/><use fill="#000" filter="url(#g)" xlink:href="#e"/><path d="m435.936416 586.937436h221.127168v2.524542c0 2.792902-2.252373 5.2307-5.038893 5.415057 0 0-22.813202 2.169119-105.088056 2.169119s-105.979351-2.177777-105.979351-2.177777c-2.772949-.19297-5.020868-2.603587-5.020868-5.406399z" fill="#f6f6f6"/></g></svg>

<svg width="1468px" height="773px" viewBox="0 0 1468 773" version="1.1" xmlns="http://www.w3.org/2000/svg" xmlns:xlink="http://www.w3.org/1999/xlink">
    <!-- Generator: Sketch 51.3 (57544) - http://www.bohemiancoding.com/sketch -->
    <desc>Created with Sketch.</desc>
    <defs>
        <filter x="-12.1%" y="-142.9%" width="124.2%" height="385.7%" filterUnits="objectBoundingBox" id="filter-1">
            <feGaussianBlur stdDeviation="50" in="SourceGraphic"></feGaussianBlur>
        </filter>
        <path d="M100.770809,44.2222251 C100.770809,19.7989646 120.567861,2.32016191e-13 144.994034,2.18811028e-13 L948.321862,-2.15480283e-13 C972.745674,-2.2868417e-13 992.545087,19.80576 992.545087,44.2222251 L992.545087,560.08957 C992.545087,584.51283 972.748035,604.311795 948.321862,604.311795 L144.994034,604.311795 C120.570222,604.311795 100.770809,584.506035 100.770809,560.08957 L100.770809,44.2222251 Z" id="path-2"></path>
        <filter x="-2.4%" y="-2.9%" width="104.8%" height="107.1%" filterUnits="objectBoundingBox" id="filter-3">
            <feOffset dx="0" dy="4" in="SourceAlpha" result="shadowOffsetOuter1"></feOffset>
            <feGaussianBlur stdDeviation="6.5" in="shadowOffsetOuter1" result="shadowBlurOuter1"></feGaussianBlur>
            <feColorMatrix values="0 0 0 0 0   0 0 0 0 0   0 0 0 0 0  0 0 0 0.04 0" type="matrix" in="shadowBlurOuter1"></feColorMatrix>
        </filter>
        <filter x="-1.9%" y="-2.1%" width="103.7%" height="105.5%" filterUnits="objectBoundingBox" id="filter-4">
            <feGaussianBlur stdDeviation="3.5" in="SourceAlpha" result="shadowBlurInner1"></feGaussianBlur>
            <feOffset dx="0" dy="0" in="shadowBlurInner1" result="shadowOffsetInner1"></feOffset>
            <feComposite in="shadowOffsetInner1" in2="SourceAlpha" operator="arithmetic" k2="-1" k3="1" result="shadowInnerInner1"></feComposite>
            <feColorMatrix values="0 0 0 0 0   0 0 0 0 0   0 0 0 0 0  0 0 0 0.12 0" type="matrix" in="shadowInnerInner1" result="shadowMatrixInner1"></feColorMatrix>
            <feGaussianBlur stdDeviation="1" in="SourceAlpha" result="shadowBlurInner2"></feGaussianBlur>
            <feOffset dx="0" dy="0" in="shadowBlurInner2" result="shadowOffsetInner2"></feOffset>
            <feComposite in="shadowOffsetInner2" in2="SourceAlpha" operator="arithmetic" k2="-1" k3="1" result="shadowInnerInner2"></feComposite>
            <feColorMatrix values="0 0 0 0 0   0 0 0 0 0   0 0 0 0 0  0 0 0 0.06 0" type="matrix" in="shadowInnerInner2" result="shadowMatrixInner2"></feColorMatrix>
            <feMerge>
                <feMergeNode in="shadowMatrixInner1"></feMergeNode>
                <feMergeNode in="shadowMatrixInner2"></feMergeNode>
            </feMerge>
        </filter>
        <path d="M0.629105275,587.569231 C0.281660026,587.56903 0,587.84756 0,588.204961 L0,597.988245 C0,597.988245 30.1926325,613.922156 137.296086,615.974939 C244.687725,615.727654 917.775914,615.974939 917.775914,615.974939 C917.775914,615.974939 1049.14029,617.438162 1093,597.988245 L1093,588.827852 C1093,588.481491 1092.71952,588.200547 1092.37089,588.200345 L0.629105275,587.569231 Z" id="path-5"></path>
        <filter x="-2.0%" y="-61.6%" width="103.9%" height="251.2%" filterUnits="objectBoundingBox" id="filter-6">
            <feOffset dx="0" dy="4" in="SourceAlpha" result="shadowOffsetOuter1"></feOffset>
            <feGaussianBlur stdDeviation="6.5" in="shadowOffsetOuter1" result="shadowBlurOuter1"></feGaussianBlur>
            <feColorMatrix values="0 0 0 0 0   0 0 0 0 0   0 0 0 0 0  0 0 0 0.04 0" type="matrix" in="shadowBlurOuter1"></feColorMatrix>
        </filter>
        <filter x="-1.5%" y="-44.0%" width="103.0%" height="216.1%" filterUnits="objectBoundingBox" id="filter-7">
            <feGaussianBlur stdDeviation="3.5" in="SourceAlpha" result="shadowBlurInner1"></feGaussianBlur>
            <feOffset dx="0" dy="0" in="shadowBlurInner1" result="shadowOffsetInner1"></feOffset>
            <feComposite in="shadowOffsetInner1" in2="SourceAlpha" operator="arithmetic" k2="-1" k3="1" result="shadowInnerInner1"></feComposite>
            <feColorMatrix values="0 0 0 0 0   0 0 0 0 0   0 0 0 0 0  0 0 0 0.12 0" type="matrix" in="shadowInnerInner1" result="shadowMatrixInner1"></feColorMatrix>
            <feGaussianBlur stdDeviation="1" in="SourceAlpha" result="shadowBlurInner2"></feGaussianBlur>
            <feOffset dx="0" dy="0" in="shadowBlurInner2" result="shadowOffsetInner2"></feOffset>
            <feComposite in="shadowOffsetInner2" in2="SourceAlpha" operator="arithmetic" k2="-1" k3="1" result="shadowInnerInner2"></feComposite>
            <feColorMatrix values="0 0 0 0 0   0 0 0 0 0   0 0 0 0 0  0 0 0 0.06 0" type="matrix" in="shadowInnerInner2" result="shadowMatrixInner2"></feColorMatrix>
            <feMerge>
                <feMergeNode in="shadowMatrixInner1"></feMergeNode>
                <feMergeNode in="shadowMatrixInner2"></feMergeNode>
            </feMerge>
        </filter>
    </defs>
    <g id="web" stroke="none" stroke-width="1" fill="none" fill-rule="evenodd">
        <g id="Desktop-HD" transform="translate(-703.000000, -3447.000000)">
            <g id="Group-7" transform="translate(820.000000, 3456.000000)">
                <path d="M551.577319,636.999998 C153.574287,636.996124 -169,631.521463 -169,624.768684 C-169,620.807411 -13.0524252,618.680096 125.355756,600.487155 C125.67829,600.44476 126.033659,600.405305 126.421314,600.368724 C67.5484076,588.682327 33,576.757411 33,568.898805 C33,548.520158 265.140357,532 551.5,532 C837.859643,532 1070,548.520158 1070,568.898805 C1070,579.902233 1002.37325,598.877632 895.071203,614.008096 C1120.15363,616.077675 1273,620.120372 1273,624.768684 C1273,631.523853 950.197305,637 552,637 C551.893438,636.999993 551.786868,637 551.68029,637 C551.645963,637 551.611637,636.999999 551.577311,636.999998 Z" id="Shadow" fill="#9CACC2" filter="url(#filter-1)"></path>
                <g id="body">
                    <g id="top">
                        <use fill="black" fill-opacity="1" filter="url(#filter-3)" xlink:href="#path-2"></use>
                        <use fill="#FFFFFF" fill-rule="evenodd" xlink:href="#path-2"></use>
                        <use fill="black" fill-opacity="1" filter="url(#filter-4)" xlink:href="#path-2"></use>
                    </g>
                    <g id="camera/light" transform="translate(543.025145, 26.535385)" fill="#EDEDED">
                        <circle cx="3.79079966" cy="3.79079966" r="3.79079966"></circle>
                    </g>
                    <g id="bottom">
                        <use fill="black" fill-opacity="1" filter="url(#filter-6)" xlink:href="#path-5"></use>
                        <use fill="#FFFFFF" fill-rule="evenodd" xlink:href="#path-5"></use>
                        <use fill="black" fill-opacity="1" filter="url(#filter-7)" xlink:href="#path-5"></use>
                    </g>
                    <path d="M435.936416,586.937436 L657.063584,586.937436 L657.063584,589.461978 C657.063584,592.25488 654.811211,594.692678 652.024691,594.877035 C652.024691,594.877035 629.211489,597.046154 546.936635,597.046154 C464.661781,597.046154 440.957284,594.868377 440.957284,594.868377 C438.184335,594.675407 435.936416,592.26479 435.936416,589.461978 L435.936416,586.937436 Z" id="notch" fill="#F6F6F6"></path>
                </g>
            </g>
        </g>
    </g>
</svg>
